X:96
T: ES WAR EIN REICHER KAUFMANNSSOHN
N: E0053
O: Europa, Mitteleuropa, Deutschland, Wetzlar, Philippstein
R: erzaehlendes Volks - Lied, Sage, Mord
M: 6/8
L: 1/16
K: G
D2 | G4G2B2A2G2 | A4A2A4
BA | G4B2d4B2 | B4A2z4
B2 | c2e2e2e2d2c2 | B2d2d2d4
B2 | A4A2d4A2 | A4G2z4

